svg/color/ethfi.svg

<svg xmlns="http://www.w3.org/2000/svg" width="512" height="512" fill="none" viewBox="0 0 512 512"><g clip-path="url(#ethfi_svg-a)"><path fill="url(#ethfi_svg-b)" d="M0 0h512v512H0z"/><path fill="url(#ethfi_svg-c)" d="m445.365 278.625-14.356-55.964c-.412-1.646-1.738-2.926-3.384-3.338l-55.461-13.671a6 6 0 0 0-1.28-.137c-1.326-.137-2.698.274-3.703 1.28l-93.594 93.594-12.39-48.374c-.412-1.646-1.738-2.927-3.384-3.338l-47.642-11.751 93.547-93.547c.549-.549.869-1.235 1.098-1.921.411-.914.548-1.966.274-2.972l-14.357-55.964c-.411-1.646-1.737-2.926-3.383-3.337l-55.461-13.671c-1.098-.275-2.195-.092-3.155.365h-.046c-.274.138-.503.32-.777.503-.229.183-.549.275-.732.503L67.518 226.456s-.275.457-.458.686c-1.006 1.188-1.371 2.743-.914 4.252l15.5 54.089c.457 1.555 1.646 2.743 3.154 3.155l51.941 14.905 14.905 51.895c.457 1.555 1.646 2.743 3.155 3.155l52.123 14.951 14.952 52.123c.457 1.555 1.645 2.744 3.154 3.155l54.318 15.591c.412.138.869.183 1.28.183.092 0 .183-.045.321-.045h.091a4.64 4.64 0 0 0 3.292-1.372L444.04 283.471c.548-.548.868-1.234 1.097-1.92.411-.914.549-1.966.274-2.972zm-71.6 62.045-11.66-45.494 25.833-25.787 44.397 12.756-58.525 58.571zm-90.576 90.575-11.659-45.493 46.728-46.728 44.396 12.756zm36.029-106.258-11.156-38.864 40.098 9.876-28.942 28.942zm35.298-22.221 10.241 39.916-39.001-11.202 28.76-28.76zm1.325-14.402-45.447-11.202 58.387-58.388 12.619 44.031zm-56.741.045 12.62 44.031-46.5 46.499-45.448-11.202zm123.633-60.856 11.659 45.494-44.076-12.665-12.619-43.939zM212.914 360.97l-11.659-45.493 16.826-16.826 44.396 12.757zm6.127-76.356-11.156-38.863 40.098 9.876-28.942 28.942zm45.539 17.741-39.001-11.202 28.759-28.76 10.242 39.916zm-52.992-10.242-16.597 16.597-45.448-11.202 49.426-49.426zm-52.306-144.345 12.619 44.03-46.911 46.911-45.448-11.202zm69.269-69.27 12.619 44.031-25.147 25.147-45.448-11.201zm5.395 121.485-11.659-45.448 25.422-25.422 44.396 12.711zM179.4 184.346l-11.157-38.864 40.099 9.876L179.4 184.3zm35.297-22.221 10.242 39.915-38.955-11.202 28.759-28.759zm-36.212 36.212 44.396 12.71-79.876 79.877-11.659-45.448zM282.503 87.369l11.659 45.493-44.076-12.665-12.619-43.939zM77.256 236.515l40.099 9.876-28.943 28.942-11.156-38.864zm17.695 45.402 28.759-28.759 10.242 39.915-38.955-11.202zm64.88 68.537-12.62-43.939 45.037 11.111 11.659 45.493zm57.655 26.291 40.099 9.876-28.943 28.942-11.156-38.864zm17.695 45.402 28.759-28.76 10.242 39.916-39.001-11.202z"/></g><defs><linearGradient id="ethfi_svg-b" x1="-71.467" x2="858.512" y1="506.027" y2="-215.095" gradientUnits="userSpaceOnUse"><stop offset=".332" stop-color="#19163B"/><stop offset="1" stop-color="#4C09A2"/></linearGradient><linearGradient id="ethfi_svg-c" x1="92.253" x2="420.95" y1="314.517" y2="194.862" gradientUnits="userSpaceOnUse"><stop stop-color="#29BCFA"/><stop offset=".43" stop-color="#6464E4"/><stop offset="1" stop-color="#B45AFA"/></linearGradient><clipPath id="ethfi_svg-a"><path fill="#fff" d="M0 0h512v512H0z"/></clipPath></defs></svg>

<svg width="512" height="512" viewBox="0 0 512 512" fill="none" xmlns="http://www.w3.org/2000/svg">
<g clip-path="url(#clip0_11471_15258)">
<rect width="512" height="512" fill="url(#paint0_linear_11471_15258)"/>
<path d="M445.365 278.625L431.009 222.661C430.597 221.015 429.271 219.735 427.625 219.323L372.164 205.652C371.753 205.561 371.296 205.515 370.884 205.515C369.558 205.378 368.186 205.789 367.181 206.795L273.587 300.389L261.197 252.015C260.785 250.369 259.459 249.088 257.813 248.677L210.171 236.926L303.718 143.379C304.267 142.83 304.587 142.144 304.816 141.458C305.227 140.544 305.364 139.492 305.09 138.486L290.733 82.5223C290.322 80.8763 288.996 79.5961 287.35 79.1846L231.889 65.5137C230.791 65.2393 229.694 65.4222 228.734 65.8794H228.688C228.414 66.0166 228.185 66.1995 227.911 66.3824C227.682 66.5653 227.362 66.6567 227.179 66.8853L67.5175 226.456C67.5175 226.456 67.2431 226.913 67.0602 227.142C66.0544 228.33 65.6886 229.885 66.1458 231.394L81.6456 285.483C82.1028 287.038 83.2916 288.226 84.8004 288.638L136.741 303.543L151.646 355.438C152.103 356.993 153.292 358.181 154.801 358.593L206.924 373.544L221.876 425.667C222.333 427.222 223.521 428.411 225.03 428.822L279.348 444.413C279.76 444.551 280.217 444.596 280.628 444.596C280.72 444.596 280.811 444.551 280.949 444.551C280.949 444.551 280.994 444.551 281.04 444.551C282.229 444.551 283.418 444.093 284.332 443.179L444.04 283.471C444.588 282.923 444.908 282.237 445.137 281.551C445.548 280.637 445.686 279.585 445.411 278.579L445.365 278.625ZM373.765 340.67L362.105 295.176L387.938 269.389L432.335 282.145L373.81 340.716L373.765 340.67ZM283.189 431.245L271.53 385.752L318.258 339.024L362.654 351.78L283.189 431.245ZM319.218 324.987L308.062 286.123L348.16 295.999L319.218 324.941V324.987ZM354.516 302.766L364.757 342.682L325.756 331.48L354.516 302.72V302.766ZM355.841 288.364L310.394 277.162L368.781 218.774L381.4 262.805L355.841 288.364ZM299.1 288.409L311.72 332.44L265.22 378.939L219.772 367.737L299.1 288.409ZM422.733 227.553L434.392 273.047L390.316 260.382L377.697 216.443L422.733 227.553ZM212.914 360.97L201.255 315.477L218.081 298.651L262.477 311.408L212.914 360.97ZM219.041 284.614L207.885 245.751L247.983 255.627L219.041 284.569V284.614ZM264.58 302.355L225.579 291.153L254.338 262.393L264.58 302.309V302.355ZM211.588 292.113L194.991 308.71L149.543 297.508L198.969 248.082L211.588 292.113ZM159.282 147.768L171.901 191.798L124.99 238.709L79.5424 227.507L159.282 147.768ZM228.551 78.4988L241.17 122.529L216.023 147.676L170.575 136.475L228.551 78.4988ZM233.946 199.983L222.287 154.535L247.709 129.113L292.105 141.824L233.946 199.983ZM179.4 184.346L168.243 145.482L208.342 155.358L179.4 184.3V184.346ZM214.697 162.125L224.939 202.04L185.984 190.838L214.743 162.079L214.697 162.125ZM178.485 198.337L222.881 211.047L143.005 290.924L131.346 245.476L178.485 198.337ZM282.503 87.3689L294.162 132.862L250.086 120.197L237.467 76.2584L282.503 87.3689ZM77.2563 236.515L117.355 246.391L88.4125 275.333L77.2563 236.469V236.515ZM94.9508 281.917L123.71 253.158L133.952 293.073L94.9965 281.871L94.9508 281.917ZM159.831 350.454L147.211 306.515L192.248 317.626L203.907 363.119L159.831 350.454ZM217.486 376.745L257.585 386.621L228.642 415.563L217.486 376.699V376.745ZM235.181 422.147L263.94 393.387L274.182 433.303L235.181 422.101V422.147Z" fill="url(#paint1_linear_11471_15258)"/>
</g>
<defs>
<linearGradient id="paint0_linear_11471_15258" x1="-71.4667" y1="506.027" x2="858.512" y2="-215.095" gradientUnits="userSpaceOnUse">
<stop offset="0.331609" stop-color="#19163B"/>
<stop offset="1" stop-color="#4C09A2"/>
</linearGradient>
<linearGradient id="paint1_linear_11471_15258" x1="92.2531" y1="314.517" x2="420.95" y2="194.862" gradientUnits="userSpaceOnUse">
<stop stop-color="#29BCFA"/>
<stop offset="0.43" stop-color="#6464E4"/>
<stop offset="1" stop-color="#B45AFA"/>
</linearGradient>
<clipPath id="clip0_11471_15258">
<rect width="512" height="512" fill="white"/>
</clipPath>
</defs>
</svg>
